X: 17
P: Longways for as many as will
M: C|
L: 1/8
K: Dm
c2 | G2B2 A2d2 | A2 (A/B/c) =B2AG | c3d (c/d/e) (dc) | c6 |:\
"^:S:"e2 | f2d2 e2^c2 | d2=B2 ^c2(BA) | d3e (d/e/f) (ed) | d6 :|

